packages/katcn/src/icons/svg/like.svg

<svg width="24" height="24" viewBox="0 0 24 24" fill="none" xmlns="http://www.w3.org/2000/svg">
<path d="M3 21C2.4 21 2 20.6 2 20V11C2 10.4 2.4 10 3 10C3.6 10 4 10.4 4 11V20C4 20.6 3.6 21 3 21Z" fill="black"/>
<path d="M16.2759 22H8.0396C6.37272 22 5 20.6 5 18.9V10.5C5 9.4 5.39221 8.4 6.07857 7.5L10.0006 3C10.5889 2.4 11.4714 2 12.4519 2C13.5305 2 14.4129 2.5 15.0013 3.3C15.5896 4.2 15.7857 5.2 15.4915 6.2L14.9032 8.1H19.0214C20.0019 8.1 20.8843 8.5 21.3746 9.3C21.9629 10.1 22.159 11.1 21.8649 12L19.8058 19.1C19.3155 20.9 17.9428 22 16.2759 22ZM7.64739 8.9C7.25518 9.4 7.05908 9.9 7.05908 10.5V18.9C7.05908 19.5 7.54934 20 8.13765 20H16.374C17.1584 20 17.8447 19.5 18.0408 18.7L20.0019 11.6C20.0999 11.3 20.0019 10.9 19.8058 10.6C19.6097 10.3 19.3155 10.2 19.0214 10.2H13.5305C13.2363 10.2 12.9422 10 12.7461 9.8C12.55 9.6 12.55 9.2 12.648 8.9L13.7266 5.6C13.8246 5.2 13.8246 4.8 13.5305 4.5C13.1383 3.9 12.1578 3.8 11.6675 4.4L7.64739 8.9Z" fill="black"/>
</svg>

<svg xmlns="http://www.w3.org/2000/svg" fill="none" viewBox="0 0 24 24"><path fill="#000" d="M3 21c-.6 0-1-.4-1-1v-9c0-.6.4-1 1-1s1 .4 1 1v9c0 .6-.4 1-1 1m13.276 1H8.04C6.373 22 5 20.6 5 18.9v-8.4c0-1.1.392-2.1 1.079-3L10 3c.588-.6 1.47-1 2.45-1 1.08 0 1.962.5 2.55 1.3.589.9.785 1.9.49 2.9l-.588 1.9h4.118c.98 0 1.863.4 2.354 1.2.588.8.784 1.8.49 2.7l-2.06 7.1c-.49 1.8-1.862 2.9-3.53 2.9M7.647 8.9c-.392.5-.588 1-.588 1.6v8.4c0 .6.49 1.1 1.079 1.1h8.236c.784 0 1.47-.5 1.667-1.3L20 11.6c.099-.3 0-.7-.195-1-.196-.3-.49-.4-.785-.4h-5.49c-.295 0-.589-.2-.785-.4s-.196-.6-.098-.9l1.079-3.3c.098-.4.098-.8-.197-1.1-.392-.6-1.372-.7-1.862-.1z"/></svg>
